icons/op-file-storage-connection-24.svg

<svg width="24" height="24" viewBox="0 0 24 24" fill="none" xmlns="http://www.w3.org/2000/svg">
<path d="M14.3969 4L18 7.71875V12.25H16.5954V8.3125L13.8168 5.4375H7.40458V18.5625H10.4351V20H6V4H14.3969Z" fill="black"/>
<path d="M12.2709 16.1562L13.7614 14.3125L17.1926 17.0625L15.7021 18.9531C15.1793 19.6296 14.0098 19.6552 13.0784 18.9465L12.2709 20L12.0225 19.8125L12.8546 18.758C11.9993 17.9669 11.7501 16.875 12.2709 16.1562Z" fill="black"/>
<path d="M16.1369 13.4062L15.64 13L14.4911 14.4531L15.0035 14.8438L16.1369 13.4062Z" fill="black"/>
<path d="M18 14.8438L17.4876 14.4375L16.3542 15.8906L16.8666 16.2969L18 14.8438Z" fill="black"/>
</svg>

<svg xmlns="http://www.w3.org/2000/svg" width="24" height="24" viewBox="0 0 24 24"><path d="M14.397 4 18 7.719v4.531h-1.405V8.312l-2.778-2.874H7.405v13.124h3.03V20H6V4h8.397Z"/><path d="m12.271 16.156 1.49-1.844 3.432 2.75-1.491 1.891c-.523.677-1.692.702-2.624-.006L12.271 20l-.248-.188.832-1.054c-.856-.791-1.105-1.883-.584-2.602Zm3.866-2.75L15.64 13l-1.149 1.453.513.391 1.133-1.438ZM18 14.844l-.512-.406-1.134 1.453.513.406L18 14.844Z"/></svg>
